X:1
T:Title
%%score { ( 1 4 ) | ( 2 3 ) }
L:1/8
Q:1/4=92
M:6/8
K:D
V:1 treble nm="Grand Piano"
V:4 treble 
V:2 bass 
V:3 bass 
V:1
 FFF F2 D | FFF [A,F]3 | [FA]2 D [FA]2 D | D3 .C3 | .G3 z3 | .G3 z3 | [Ac]2 [GB] [FA]2 [EG] | %7
w: Chas.~H.~Gabriel * * * *|||||||
 [DF]3 [FA]3 | [Fd]2 [Fc] .[DFB]2 [A,DF] | [CGA]2 [CGA] C3 | [Gc]2 [GB] [EG]EC | B2 B A3 | %12
w: |||||
 [Fd]2 [Fc] .[DFB]2 [A,DF] | [B,DE]2 [B,DE] [DGB]3 | [DFA]2 [Fd] [DFA]2 [A,DF] | [G,CE]3 [F,D]3 |] %16
w: ||||
V:2
 [D,A,]3 A,2 F, | [D,A,]3 D,3 | D,F,A, D,F,A, | E,G,A, E,G,A, | [A,,E,]3 [A,,E,]2 E | %5
 [A,,E,]3 [A,,E,]3 | A,,E,A, A,,E,A, | D,F,A, D,F,A, | [D,A,]2 [D,A,] z AD, | E,2 E, A,3 | %10
 [A,,A,]2 [A,,A,] z C[A,,G,] | [D,G,D]2 [D,G,D] [D,F,D]3 | [D,A,]2 [D,A,] z AD, | G,,2 G,, G,,3 | %14
 A,,2 [A,,A,] A,,2 A,, | A,,3 D,3 |] %16
V:3
 z3 D,3 | x6 | x6 | x6 | x6 | x6 | x6 | x6 | z3 .D,3 | x6 | z3 .[A,,A,]3 | x6 | z3 .D,3 | x6 | x6 | %15
 x6 |] %16
V:4
 x6 | x6 | x6 | x6 | C-[C-G][CG] .[CG]3 | C-[C-G][CG] [CG]3 | x6 | x6 | x6 | x6 | x6 | x6 | x6 | %13
 x6 | x6 | x6 |] %16

